icon-themes/breeze_svg/cmd/sc_underline.svg

<svg viewBox="0 0 16 16" xmlns="http://www.w3.org/2000/svg">/&gt;<path d="m4 2v3 1 4c0 1.65685 1.567 3 3.5 3s3.5-1.34315 3.5-3v-5-3h-1v3 2.90625 2.09375c0 1.10457-.89543 2-2 2s-2-.89543-2-2v-2.6875-1.3125-1-3zm-2 13v1h12v-1z" fill="#4d4d4d"/></svg>

<svg xmlns="http://www.w3.org/2000/svg" viewBox="0 0 16 16">
     />
 <path 
     style="fill:#4d4d4d" 
     d="M 4 2 L 4 5 L 4 6 L 4 10 C 4 11.65685 5.567 13 7.5 13 C 9.433 13 11 11.65685 11 10 L 11 5 L 11 2 L 10 2 L 10 5 L 10 7.90625 L 10 10 C 10 11.10457 9.10457 12 8 12 C 6.89543 12 6 11.10457 6 10 L 6 7.3125 L 6 6 L 6 5 L 6 2 L 4 2 z M 2 15 L 2 16 L 14 16 L 14 15 L 2 15 z "
     />
 </svg>
